src/components/CallToAction/images/calendar.svg

<svg xmlns="http://www.w3.org/2000/svg" width="20" height="20" fill="none" viewBox="0 0 20 20"><g opacity=".75"><path fill="#fff" d="M6.00049 2.40002C5.55753 2.40002 5.20049 2.75706 5.20049 3.20002V5.60003C5.20049 6.04299 5.55753 6.40003 6.00049 6.40003C6.44345 6.40003 6.80049 6.04299 6.80049 5.60003V3.20002C6.80049 2.75706 6.44345 2.40002 6.00049 2.40002ZM14.0005 2.40002C13.5575 2.40002 13.2005 2.75706 13.2005 3.20002V5.60003C13.2005 6.04299 13.5575 6.40003 14.0005 6.40003C14.4434 6.40003 14.8005 6.04299 14.8005 5.60003V3.20002C14.8005 2.75706 14.4434 2.40002 14.0005 2.40002ZM2.80049 4.40002C2.35753 4.40002 2.00049 4.75707 2.00049 5.20003V7.60003H18.0005V5.20003C18.0005 4.75707 17.6434 4.40002 17.2005 4.40002H15.2005V5.60003C15.2005 6.25785 14.6583 6.80003 14.0005 6.80003C13.3427 6.80003 12.8005 6.25785 12.8005 5.60003V4.40002H7.20049V5.60003C7.20049 6.25785 6.65831 6.80003 6.00049 6.80003C5.34267 6.80003 4.80049 6.25785 4.80049 5.60003V4.40002H2.80049ZM2.00049 8.00003V16.8C2.00049 17.243 2.35753 17.6 2.80049 17.6H17.2005C17.6434 17.6 18.0005 17.243 18.0005 16.8V8.00003H2.00049Z"/></g></svg>

<svg fill="none" viewBox="0 0 20 20"><path fill="#fff" d="M6 2.4a.8.8 0 00-.8.8v2.4a.8.8 0 101.6 0V3.2c0-.443-.357-.8-.8-.8zm8 0c-.443 0-.8.357-.8.8v2.4c0 .443.357.8.8.8.443 0 .8-.357.8-.8V3.2c0-.443-.357-.8-.8-.8zm-11.2 2a.8.8 0 00-.8.8v2.4h16V5.2c0-.443-.357-.8-.8-.8h-2v1.2c0 .658-.542 1.2-1.2 1.2-.657 0-1.2-.542-1.2-1.2V4.4H7.2v1.2c0 .658-.542 1.2-1.2 1.2-.657 0-1.2-.542-1.2-1.2V4.4h-2zM2 8v8.8a.8.8 0 00.8.8h14.4c.443 0 .8-.357.8-.8V8H2z" opacity=".75"/></svg>
